!!!OTL: Herr von Falkenstein Es ligt ein hauss im Oberlandt,
!!!ARE: Europa, Mitteleuropa, Deutschland
!!!YOR: 1, S. 226
!!    1544 gedruckt in Nuernberg
!!!SCT: Q0021C
!!!YEM: Copyright 1995, estate of Helmut Schaffrath.
**kern
*ICvox
*Ivox
!! Irregular meter.
*MX
*k[b-]
*F:
{4f
=1
4f
4g
4a
4b-
=2
4cc
4cc
4f}
=3
{4g
=4
4a
4dd
4cc
4f
=5
[4f
8f]
16e
16d
4e
4f
2d
=6
2c
4r
2r}
{4cc
=7
4cc
4cc
4dd
4cc
=8
4cc
4b-
4a}
=9
{4dd
=10
4cc
4g
4a
4f
=11
4e
4f
4g
[4a
=12
4a]
8g
8f
2g
=13
2f
4r}
==
!!!AGN: Ballade, Gefangenschaft, Ehe, Befreiung
!! Anhaengsel in der letzten Zeile.
!!!ONB: ESAC (Essen Associative Code) Database: BALLADE
!!!AMT: irregular
!!!AIN: vox
!!!EED: Helmut Schaffrath
!!!EEV: 1.0
*-
